app/_includes/svgs/technology-logos/logo_backbone.min.svg

<svg xmlns="http://www.w3.org/2000/svg" viewBox="0 0 150 100"><g fill-rule="evenodd"><path d="M36.47 20.72v14.07l-24.31 14.21v20.45l24.28-14v14l-36.37 20.82-.07-48.68 36.47-20.87" fill="#0372b4"/><path fill="#0372b4" d="M72.96 0v41.61l-12.06-6.92-.03-13.72-12.25 6.73-12.15-6.98 36.49-20.72z"/><path fill="#012b42" d="M36.45 69.45v-13.99l24.36 13.84v-20.39l-24.34-14.12v-14.07l36.49 20.89v48.63l-36.51-20.79z"/><path d="M24.25 27.66l-12.08-6.91v13.93l-12.17 6.91v-41.59s24.87 14 36.47 20.72z" fill="#012b42"/><path fill="#012b42" d="M18.63 45.2l17.82 10.26-12.16 7-12.12-6.95-.01-6.51 6.47-3.8z"/><path d="M36.45 55.54l18-10.34 6.41 3.71v6.66c-4 2.3-12 6.91-12 6.91z" fill="#0372b4"/></g></svg>

<svg xmlns="http://www.w3.org/2000/svg" viewBox="0 0 150 100"><g fill-rule="evenodd"><path d="M36.47 20.72v14.07L12.16 49v20.45l24.28-14v14L.07 90.27 0 41.59l36.47-20.87" fill="#0372b4"/><path fill="#0372b4" d="M72.96 0v41.61L60.9 34.69l-.03-13.72-12.25 6.73-12.15-6.98L72.96 0z"/><path fill="#012b42" d="M36.45 69.45V55.46L60.81 69.3V48.91L36.47 34.79V20.72l36.49 20.89v48.63L36.45 69.45z"/><path d="M24.25 27.66l-12.08-6.91v13.93L0 41.59V0s24.87 14 36.47 20.72z" fill="#012b42"/><path fill="#012b42" d="M18.63 45.2l17.82 10.26-12.16 7-12.12-6.95-.01-6.51 6.47-3.8z"/><path d="M36.45 55.54l18-10.34 6.41 3.71v6.66c-4 2.3-12 6.91-12 6.91z" fill="#0372b4"/></g></svg>
